X:1
T:Title
%%score { ( 1 4 ) | ( 2 3 ) }
L:1/8
Q:1/4=108
M:4/4
K:F
V:1 treble nm="Grand Piano"
V:4 treble 
V:2 bass 
V:3 bass 
V:1
 A2 F2 [EG]2 [GB]2 | [FA]2 [CF]2 [EG]2 [Ec]2 | A2 c2 d2 cA | [CEG]2 [B,FG]2 [CEG]4 | %4
w: Robert~Lowry * * *||||
 [CFA]2 [CFc]2 [CEG]2 [CGB]2 | [CFA]2 [CFc]2 [CEG]2 [CGB]2 | [CFA]2 [_EFc]2 [DFc]2 BA | %7
w: |||
 [CFA]2 [B,EG]2 F4 | A2 A>A [Ec]2 [Ec]>[Ec] | [A,F]2 [DF]2 [^CEA]4 | [DGB]2 [DGB]>[DGB] [CEG]4 | %11
w: ||||
 [Ec]2 [Ec]>[GB] A4 | c2 c>c A2 [FA]>[FA] | [FB]2 [Fc]2 [Fd]4 | c2- [Ec]2 [B,EG]3 [CEA] | [A,F]8 |] %16
w: |||||
V:2
 [F,CF]2 [F,A,C]2 [C,C]2 [C,C]2 | [F,C]2 [F,A,]2 [C,C]2 [C,C]2 | %2
 [F,CF]2 [F,A,F]2 [F,B,F]2 [F,F]-[F,CF] | G,2 G,2 C,4 | F,2 A,,2 C,2 E,2 | F,2 A,,2 C,2 E,2 | %6
 F,2 A,,2 B,,2 B,,=B,, | C,2 C,2 [F,A,]4 | [F,CF]2 [F,CF]>[F,CF] [C,B,]2 [C,B,]>[C,B,] | %9
 D,2 D,2 A,,4 | G,,2 G,,>G,, C,4 | [C,G,]2 [C,G,]>[C,C] [F,CF]4 | %12
 [F,A,F]2 [F,A,F]>[F,A,F] [F,CF]2 [_E,C]>[E,C] | [D,B,]2 [C,A,]2 [B,,B,]4 | A,2 z2 z4 | F,8 |] %16
V:3
 x8 | x8 | z4 z2 .A,2 | x8 | x8 | x8 | x8 | x8 | x8 | x8 | x8 | x8 | x8 | x8 | %14
 C,2- [C,G,]2 C,3 C, | x8 |] %16
V:4
 x8 | x8 | x8 | x8 | x8 | x8 | z4 z2 [DF]2 | x8 | x8 | x8 | x8 | x8 | x8 | x8 | F2 z2 z4 | x8 |] %16

